X: 600
T: Yenjie kuxiufang
L: 1/8
M: 2/4
K: F
c dc2 [I:setbarnb 1]| 
d f A G | 
c c A c | 
G F D C | 
G2A G | 
F G/ F/D2 | 
f f d A | 
c4 |]

@@@ Tune index: 9474
